!!!!SEGMENT: pl-kk--kk-i-1--038_anonim--alleluia-post-partum-virgo.krn
!!!cenid: 15xx:751
!!!COM: Anonim
!!!COM-rismID: pe30004985
!!!CDT:
!!!CNT:
!!!OTL: Alleluia, post partum virgo
!!!PDT:
!!!AGN:
!!!SMS-siglum: PL-Kk
!!!SMS-shelfmark: Kk.I.1
!!!SMS-shelfwork: 038 W
!!!SMS-variant:
!!!SMS-altvar:
!!!NIFC-rismSourceID: 300257992
!!!NIFC-islandoraID: pl-kk:1
!!!URL-pdf-islandora: https://repozytorium.nifc.pl/islandora/object/pl-kk%3A1/datastream/PDF/view
!!!URL-scan: https://polish.musicsources.pl/pl/lokalizacje/galeria/rekopisy/5736 @EN{Scan on Polish Music Sources Website} @PL{Skany w portalu Dziedzictwo Muzyki Polskiej w otwartym dostępie}
!!!ONB-nifc: UWAGA: Cantus (s. 133r-134r, skan 0135-0136), Altus (s. 128r-129r, skan 0321-0322), Tenor (s. 111v, skan 0502), Bassus (s. 121r-v, skan 0683-0684).
!!!AIN: 1 alto 1 bass 1 soprn 1 tenor
!!!key: a
**kern	**text	**text	**kern	**text	**text	**kern	**text	**text	**kern	**text	**text
*ICvox	*	*	*ICvox	*	*	*ICvox	*	*	*ICvox	*	*
*Ibass	*	*	*Itenor	*	*	*Ialto	*	*	*Isoprn	*	*
*part4	*part4	*part4	*part3	*part3	*part3	*part2	*part2	*part2	*part1	*part1	*part1
*staff4	*staff4	*staff4	*staff3	*staff3	*staff3	*staff2	*staff2	*staff2	*staff1	*staff1	*staff1
*I"BASSVS	*	*	*I"TENOR	*	*	*I"ALTVS	*	*	*I"CANTVS	*	*
*I'B	*	*	*I'T	*	*	*I'A	*	*	*I'S	*	*
*clefF4	*	*	*clefC5	*	*	*clefC4	*	*	*clefC3	*	*
*k[]	*	*	*k[]	*	*	*k[]	*	*	*k[]	*	*
*a:	*	*	*a:	*	*	*a:	*	*	*a:	*	*
*M2/1	*	*	*M2/1	*	*	*M2/1	*	*	*M2/1	*	*
*met(C|)	*	*	*met(C|)	*	*	*met(C|)	*	*	*met(C|)	*	*
*	*	*	*lig	*	*	*	*	*	*	*	*
=1-	=1-	=1-	=1-	=1-	=1-	=1-	=1-	=1-	=1-	=1-	=1-
*xywh-#683:6402,684,3744,832	*	*	*xywh-#502:1773,563,3649,853	*	*	*xywh-#321:6400,2058,3790,880	*	*	*xywh-#135:6553,1453,3829,776	*	*
!LO:TX:t=P:problem=all\middle	!	!	!LO:TX:t=P:problem=all\middle	!	!	!LO:TX:t=P:problem=all\middle	!	!	!LO:TX:t=P:problem=all\middle	!	!
1C	Al-	.	1C	Al-	.	1G	Al-	.	1c	Al-	.
2.F\	-le-	.	1D	.	.	2F/	-le-	.	2A/	-le-	.
.	.	.	.	.	.	4D/	-lu-	.	2.d\	.	.
4G\	.	.	.	.	.	4E/	.	.	.	.	.
*	*	*	*Xlig	*	*	*	*	*	*	*	*
=2-	=2-	=2-	=2-	=2-	=2-	=2-	=2-	=2-	=2-	=2-	=2-
*	*	*	*lig	*	*	*	*	*	*	*	*
4A\	.	.	1D	-le-	.	4F/	.	.	.	.	.
4G\	.	.	.	.	.	4G/	.	.	4e\	.	.
4F\	.	.	.	.	.	1A	.	.	2.f\	.	.
4E\	.	.	.	.	.	.	.	.	.	.	.
1D	.	.	1F	.	.	.	.	.	.	.	.
.	.	.	.	.	.	.	.	.	4e\	.	.
.	.	.	.	.	.	2F/	.	.	4d\	.	.
.	.	.	.	.	.	.	.	.	4c/	.	.
*	*	*	*Xlig	*	*	*	*	*	*	*	*
=3-	=3-	=3-	=3-	=3-	=3-	=3-	=3-	=3-	=3-	=3-	=3-
*	*	*	*lig	*	*	*	*	*	*	*	*
2.D/	-lu-	.	1F	-lu-	.	2A/	.	.	1d	.	.
.	.	.	.	.	.	2B/	.	.	.	.	.
4C/	.	.	.	.	.	.	.	.	.	.	.
4AA/	.	.	1E	.	.	2c/	.	.	2e\	.	.
4BB/	.	.	.	.	.	.	.	.	.	.	.
2C/	.	.	.	.	.	1A\	.	.	2c/	-lu-	.
*	*	*	*Xlig	*	*	*	*	*	*	*	*
=4-	=4-	=4-	=4-	=4-	=4-	=4-	=4-	=4-	=4-	=4-	=4-
0BB	.	.	1D	-ia	.	.	.	.	0d	-ia	.
.	.	.	.	.	.	4G/	.	.	.	.	.
.	.	.	.	.	.	4F/	.	.	.	.	.
*	*	*	*lig	*	*	*	*	*	*	*ij	*
.	.	.	1D	.	.	1G	.	.	.	.	.
=5-	=5-	=5-	=5-	=5-	=5-	=5-	=5-	=5-	=5-	=5-	=5-
1AA	-ia,	.	1E	.	.	0A	-ia,	.	2c/	al-	.
.	.	.	.	.	.	.	.	.	2e\	.	.
*	*ij	*	*Xlig	*	*	*	*	*	*	*	*
1D	al-	.	1F	.	.	.	.	.	2d/	.	.
*	*	*	*	*	*	*	*	*	*custos:e	*	*
.	.	.	.	.	.	.	.	.	2f\	.	.
=6-	=6-	=6-	=6-	=6-	=6-	=6-	=6-	=6-	=6-	=6-	=6-
*custos:BB	*	*	*	*	*	*	*	*	*	*	*
*	*	*	*lig	*	*	*	*	*	*	*	*
*	*	*	*	*	*	*custos:D	*	*	*	*	*
*	*	*	*	*	*	*	*	*	*xywh-#135:6107,2137,4258,903	*	*
!	!	!	!	!	!	!	!	!	!LO:LB:g=original	!	!
2C/	-le-	.	1G	.	.	2r	.	.	2e/	.	.
*xywh-#683:5911,1412,4235,872	*	*	*	*	*	*xywh-#321:5992,2846,4175,944	*	*	*	*	*
!LO:LB:g=original	!	!	!	!	!	!LO:LB:g=original	!	!	!	!	!
2BB/	.	.	.	.	.	2D/	Al-	.	2d/	.	.
*	*	*	*	*	*	*Xbrackettup	*	*	*	*	*
*	*	*	*	*	*	*col	*	*	*	*	*
!	!	!	!	!	!	!LO:TUP:b	!	!	!	!	!
2AA/	.	.	1E	.	.	3E/	-le-	.	2c/	.	.
.	.	.	.	.	.	3F/	.	.	.	.	.
2GG/	.	.	.	.	.	.	.	.	2B/	.	.
.	.	.	.	.	.	3G/	.	.	.	.	.
*	*	*	*Xlig	*	*	*Xcol	*	*	*	*	*
=7-	=7-	=7-	=7-	=7-	=7-	=7-	=7-	=7-	=7-	=7-	=7-
*	*	*	*lig	*	*	*	*	*	*	*	*
1FF	-lu-	.	1F	.	.	1A	-lu-	.	2A/	.	.
.	.	.	.	.	.	.	.	.	1c	-le-	.
1GG	-ia	.	1D	.	.	1G	-ia	.	.	.	.
.	.	.	.	.	.	.	.	.	2B/	.	.
*	*	*	*Xlig	*	*	*	*	*	*	*Xij	*
=8-	=8-	=8-	=8-	=8-	=8-	=8-	=8-	=8-	=8-	=8-	=8-
*	*	*	*lig	*	*	*	*ij	*	*	*	*
2AA/	al-	.	1C	.	.	2.E/	al-	.	2c/	.	.
2C/	.	.	.	.	.	.	.	.	2e\	.	.
.	.	.	.	.	.	4F/	.	.	.	.	.
2BB/	-le-	.	1D	.	.	2G/	-le-	.	2d\	.	.
2D/	.	.	.	.	.	4A/	.	.	2.f\	.	.
.	.	.	.	.	.	4B/	.	.	.	.	.
*	*	*	*Xlig	*	*	*	*	*	*	*	*
=9-	=9-	=9-	=9-	=9-	=9-	=9-	=9-	=9-	=9-	=9-	=9-
*	*	*	*lig	*	*	*	*	*	*	*	*
1C	-lu-	.	1E	.	.	1c	-lu-	.	.	.	.
.	.	.	.	.	.	.	.	.	4e\	.	.
.	.	.	.	.	.	.	.	.	1e	.	.
1D	.	.	1F	.	.	1A	.	.	.	.	.
.	.	.	.	.	.	.	.	.	2d\	-lu-	.
*	*	*	*Xlig	*	*	*	*	*	*	*	*
=10-	=10-	=10-	=10-	=10-	=10-	=10-	=10-	=10-	=10-	=10-	=10-
*	*	*	*custos:F	*	*	*	*	*	*	*	*
0C;>\l	-ia	.	0E;>\l	.	.	0A;<l	-ia	.	0e;<l	-ia	.
*	*Xij	*	*	*	*	*	*Xij	*	*	*	*
=11-	=11-	=11-	=11-	=11-	=11-	=11-	=11-	=11-	=11-	=11-	=11-
*	*	*	*xywh-#502:1306,1335,4156,864	*	*	*	*	*	*	*	*
!	!	!	!LO:LB:g=original	!	!	!	!	!	!	!	!
1D	Poſt	.	1F	Poſt	Se-	1A	Poſt	Se-	1d	Poſt	Se-
*	*	*	*lig	*	*	*lig	*	*	*	*	*
1D	.	se-	1F	par-	-nex	1A	par-	-nex	1.d	par-	-nex
=12-	=12-	=12-	=12-	=12-	=12-	=12-	=12-	=12-	=12-	=12-	=12-
4GG/	par-	-nex	1D	.	.	1G	.	.	.	.	.
4AA/	.	.	.	.	.	.	.	.	.	.	.
4BB/	.	.	.	.	.	.	.	.	4c/	.	.
*custos:D	*	*	*	*	*	*	*	*	*custos:A	*	*
4C/	.	.	.	.	.	.	.	.	4B/	.	.
*	*	*	*Xlig	*	*	*Xlig	*	*	*	*	*
*	*	*	*lig	*	*	*	*	*	*	*	*
*	*	*	*	*	*	*custos:A	*	*	*	*	*
*xywh-#683:5894,2186,4247,832	*	*	*	*	*	*	*	*	*	*	*
*	*	*	*	*	*	*	*	*	*xywh-#135:6090,2866,4258,955	*	*
!LO:LB:g=original	!	!	!	!	!	!	!	!	!LO:LB:g=original	!	!
1D	-tum	.	1F	.	.	2F/	-tu(m)	.	2A/	.	.
*	*	*	*	*	*	*xywh-#322:1419,561,4227,944	*	*	*	*	*
!	!	!	!	!	!	!LO:PB:g=original	!	!	!	!	!
.	.	.	.	.	.	2.A/	.	.	1d\	-tum	.
=13-	=13-	=13-	=13-	=13-	=13-	=13-	=13-	=13-	=13-	=13-	=13-
2r	.	.	1D	.	.	.	.	.	.	.	.
.	.	.	.	.	.	4F/	uir-	.	.	.	.
2GG/	uir-	.	.	.	.	2G/	.	.	2B/	.	.
*	*	*	*Xlig	*	*	*	*	*	*	*	*
2AA/	.	.	1C	-tu(m)	.	2E/	.	.	2c/	.	.
2C/	-go	.	.	.	.	1A\	.	.	2e\	uir-	.
=14-	=14-	=14-	=14-	=14-	=14-	=14-	=14-	=14-	=14-	=14-	=14-
1BB	.	.	1D	uir-	.	.	.	.	1d	.	.
.	.	.	.	.	.	2G/	.	.	.	.	.
0AA	.	.	1E	-go	.	1A	-go	.	2c/	-go	.
.	.	.	.	.	.	.	.	.	2e\	in-	.
=15-	=15-	=15-	=15-	=15-	=15-	=15-	=15-	=15-	=15-	=15-	=15-
.	.	.	1E	in-	pu-	2r	.	.	1c	-ui-	pu-
.	.	.	.	.	.	2A/	in-	.	.	.	.
2r	.	.	1C	-ui-	-e-	1G	-ui-	pu-	1e	-o-	-e-
2E\	in-	pu-	.	.	.	.	.	.	.	.	.
=16-	=16-	=16-	=16-	=16-	=16-	=16-	=16-	=16-	=16-	=16-	=16-
1C	-ui-	-e-	1E	-o-	-rum	2G/	-o-	-e-	2.g\	-la-	-rum
.	.	.	.	.	.	1c	-la-	-rum	.	.	.
.	.	.	.	.	.	.	.	.	4f\	-ta	.
*	*	*	*lig	*	*	*	*	*	*	*	*
2E\	-o-	-rum	1G	-la-	por-	.	.	.	4e\	.	por-
.	.	.	.	.	.	.	.	.	4c/	.	.
2G\	-la-	.	.	.	.	2B/	.	.	4d/	.	.
.	.	.	.	.	.	.	.	.	4e/	.	.
=17-	=17-	=17-	=17-	=17-	=17-	=17-	=17-	=17-	=17-	=17-	=17-
4F\	.	.	1A	.	.	2c\	.	.	2.f\	.	.
4E\	.	por-	.	.	.	.	.	.	.	.	.
4D/	.	.	.	.	.	2d\	.	.	.	.	.
4C/	.	.	.	.	.	.	.	.	4e\	.	.
*lig	*	*	*Xlig	*	*	*	*	*	*	*	*
*	*	*	*lig	*	*	*lig	*	*	*	*	*
1D	.	-ta-	1F	.	.	1A	.	.	4d\	.	.
.	.	.	.	.	.	.	.	.	4e\	.	.
*	*	*	*	*	*	*	*	*	*custos:e	*	*
.	.	.	.	.	.	.	.	.	2f\	.	.
=18-	=18-	=18-	=18-	=18-	=18-	=18-	=18-	=18-	=18-	=18-	=18-
*	*	*	*	*	*	*	*	*	*xywh-#136:1527,610,4154,898	*	*
!	!	!	!	!	!	!	!	!	!LO:PB:g=original	!	!
1GG	.	.	1G	.	.	1B	.	.	2e\	ui-	.
.	.	.	.	.	.	.	.	.	2.d/	-o-	.
*Xlig	*	*	*Xlig	*	*	*Xlig	*	*	*	*	*
1AA	-ta	-bat	1E	.	.	0.A	-ta	.	.	.	.
.	.	.	.	.	.	.	.	.	4c/	.	.
.	.	.	.	.	.	.	.	.	2c/	-la-	-ta-
=19-	=19-	=19-	=19-	=19-	=19-	=19-	=19-	=19-	=19-	=19-	=19-
*	*	*ij	*lig	*	*	*	*	*	*	*	*
2r	.	.	1D	.	.	.	.	.	1d	-ta	-bat
1D	per-	por-	.	.	.	.	.	.	.	.	.
.	.	.	1F	.	.	.	.	.	2r	.	.
2D/	-ma(n)-	-ta-	.	.	.	.	.	.	2d/	per-	.
*	*	*	*Xlig	*	*	*	*	*	*	*	*
=20-	=20-	=20-	=20-	=20-	=20-	=20-	=20-	=20-	=20-	=20-	=20-
*custos:D	*	*	*	*	*	*	*	*	*	*	*
2F\	-ſi-	.	1D	-ta	.	2r	.	.	2d/	-man-	.
*xywh-#683:5926,2857,4247,1040	*	*	*	*	*	*	*	*	*	*	*
!LO:LB:g=original	!	!	!	!	!	!	!	!	!	!	!
2D/	.	.	.	.	.	1A	per-	pu-	2f\	.	.
*	*	*	*custos:D	*	*	*	*	*	*	*	*
2.F\	.	.	1D	per-	.	.	.	.	2d/	.	.
*	*	*	*	*	*	*custos:F	*	*	*	*	*
.	.	.	.	.	.	2A/	-ma(n)-	-e-	1f\	-ſi-	.
4G\	.	.	.	.	.	.	.	.	.	.	.
=21-	=21-	=21-	=21-	=21-	=21-	=21-	=21-	=21-	=21-	=21-	=21-
*	*	*	*lig	*	*	*	*	*	*	*	*
*	*	*	*xywh-#502:1323,2108,4179,841	*	*	*xywh-#322:1377,1338,4248,930	*	*	*	*	*
!	!	!	!LO:LB:g=original	!	!	!LO:LB:g=original	!	!	!	!	!
2A\	.	.	1D	-man-	-ta-	2.F/	-ſi-	-rum	.	.	.
1F	.	.	.	.	.	.	.	.	4e\	.	.
.	.	.	.	.	.	4G/	.	.	4d\	.	.
.	.	.	1F	.	.	4A/	.	por-	2c/	.	.
.	.	.	.	.	.	4G/	.	.	.	.	.
4E\	.	.	.	.	.	4A/	.	.	2d/	.	.
4D/	.	.	.	.	.	4B/	.	.	.	.	.
*	*	*	*Xlig	*	*	*	*	*	*	*	*
=22-	=22-	=22-	=22-	=22-	=22-	=22-	=22-	=22-	=22-	=22-	=22-
*	*	*	*lig	*	*	*	*	*	*	*	*
1C	.	.	1E	-ſi-	.	1c	.	.	1e	.	.
1D	.	.	1F	.	.	2A/	.	.	2d/	.	.
.	.	.	.	.	.	2d\	.	.	2.f\	.	.
*	*	*	*Xlig	*	*	*	*	*	*	*	*
=23-	=23-	=23-	=23-	=23-	=23-	=23-	=23-	=23-	=23-	=23-	=23-
2E\	-ſi-	.	1G	.	.	2B\	.	.	.	.	.
.	.	.	.	.	.	.	.	.	4e\	.	.
2C/	-ſti	.	.	.	.	2c\	.	.	1e	.	.
*	*	*	*lig	*	*	*	*	*	*	*	*
1D	.	.	1F	-ſti,	-bat	2A/	-ſti,	.	.	.	.
*	*	*	*	*	*	*	*	*	*custos:e	*	*
.	.	.	.	.	.	1A\	per-	.	2d/	.	.
=24-	=24-	=24-	=24-	=24-	=24-	=24-	=24-	=24-	=24-	=24-	=24-
*	*	*	*	*	*	*	*	*	*xywh-#136:1509,1339,4194,955	*	*
!	!	!	!	!	!	!	!	!	!LO:LB:g=original	!	!
2AA/	per-	.	1E	.	.	.	.	.	1e	-ſti	.
2GG/	-man-	.	.	.	.	2B\	-ma(n)-	.	.	.	.
*	*	*	*Xlig	*	*	*	*	*	*	*	*
1AA	-ſi-	.	1E	De-	pu-	1c	-ſi-	-ta-	2r	.	.
.	.	.	.	.	.	.	.	.	1e\	De-	pu-
=25-	=25-	=25-	=25-	=25-	=25-	=25-	=25-	=25-	=25-	=25-	=25-
*	*	*	*lig	*	*	*	*	*	*	*	*
2E\	-ſti,	-bat	1G	-i	-er	2B\	-ſti	-bat	.	.	.
*	*	*Xij	*	*	*	*	*	*	*	*	*
2E\	De-	pu-	.	.	.	2e\	De-	.	2c/	-i	-er
2D/	-i	-er	1A	.	.	2f\	-i	.	2d\	ge-	.
2C/	ge-	.	.	.	.	2e\	ge-	.	2e\	-ni-	au-
*	*	*	*Xlig	*	*	*	*	*	*	*	*
=26-	=26-	=26-	=26-	=26-	=26-	=26-	=26-	=26-	=26-	=26-	=26-
*custos:AA	*	*	*	*	*	*	*	*	*	*	*
*	*	*	*lig	*	*	*	*	*	*	*	*
1D	-ni-	.	1A	ge-	au-	1d	-ni-	.	1f	.	-tem
*	*	*	*	*	*	*custos:A	*	*	*	*	*
*xywh-#684:1332,569,4237,791	*	*	*	*	*	*	*	*	*	*	*
!LO:LB:g=original	!	!	!	!	!	!	!	!	!	!	!
2.AA/	.	.	1c	.	.	2c\	-trix	.	2e\	.	.
*	*	*	*	*	*	*	*ij	*	*	*	*
*	*	*	*	*	*	*xywh-#322:1405,2059,4178,951	*	*	*	*	*
!	!	!	!	!	!	!LO:LB:g=original	!	!	!	!	!
.	.	.	.	.	.	1A\	De-	.	2.e\	.	.
4BB/	.	au-	.	.	.	.	.	.	.	.	.
*	*	*	*Xlig	*	*	*	*	*	*	*	*
=27-	=27-	=27-	=27-	=27-	=27-	=27-	=27-	=27-	=27-	=27-	=27-
*	*	*	*lig	*	*	*	*	*	*	*	*
2C/	.	-tem	1A	.	.	.	.	.	.	.	.
.	.	.	.	.	.	.	.	.	4d\	.	.
2D/	.	.	.	.	.	2F/	-i	.	1d	.	.
1E	.	.	1G	.	.	1G	ge-	.	.	.	.
!	!	!	!	!	!	!	!	!	!LO:SIC:v:s=2c/:t=musica ficta?	!	!
.	.	.	.	.	.	.	.	.	2c/	-trix	.
*	*	*	*Xlig	*	*	*	*	*	*	*	*
=28-	=28-	=28-	=28-	=28-	=28-	=28-	=28-	=28-	=28-	=28-	=28-
*	*	*	*lig	*	*	*	*	*	*	*	*
2D/	-trix,	.	1F	.	.	2.A/	-ni-	.	2d/	.	.
*	*ij	*	*	*	*	*	*	*	*	*	*
2D/	De-	.	.	.	.	.	.	.	2f\	De-	.
.	.	.	.	.	.	4B\	.	.	.	.	.
2C/	.	.	1G	.	.	2c\	.	.	2e\	-i	.
2BB/	.	.	.	.	.	2d\	.	.	2d\	ge-	.
=29-	=29-	=29-	=29-	=29-	=29-	=29-	=29-	=29-	=29-	=29-	=29-
!	!	!	!LO:TX:a:t=2	!	!	!	!	!	!	!	!
2AA/	.	.	0A	.	.	2A/	-trix	.	2c/	-ni-	.
*	*	*	*	*	*	*	*Xij	*	*	*	*
2D/	.	.	.	.	.	2f\	De-	pu-	2d\	.	.
2C/	.	.	.	.	.	2e\	-i	-er	2e\	.	.
2D/	-i	.	.	.	.	1d\	ge-	.	2f\	.	.
*	*	*	*Xlig	*	*	*	*	*	*	*	*
=30-	=30-	=30-	=30-	=30-	=30-	=30-	=30-	=30-	=30-	=30-	=30-
*	*	*	*	*	*	*	*	*	*custos:d	*	*
4GG/	ge-	.	1G	.	.	.	.	.	2g\	.	.
4AA/	.	.	.	.	.	.	.	.	.	.	.
*	*	*	*	*	*	*	*	*	*xywh-#136:1503,2098,4217,973	*	*
!	!	!	!	!	!	!	!	!	!LO:LB:g=original	!	!
4BB/	.	.	.	.	.	4c\	.	au-	2.d\	-trix	.
4C/	.	.	.	.	.	4B\	.	.	.	.	.
*	*	*	*lig	*	*	*	*	*	*	*	*
2.D/	.	.	1F	.	.	2.A/	.	.	.	.	.
.	.	.	.	.	.	.	.	.	4e\	.	.
.	.	.	.	.	.	.	.	.	4f\	.	.
4C/	.	.	.	.	.	4B\	.	.	4d\	.	.
=31-	=31-	=31-	=31-	=31-	=31-	=31-	=31-	=31-	=31-	=31-	=31-
4AA/	.	.	1E	.	.	2c\	.	-tem	2e\	.	.
*custos:C	*	*	*	*	*	*	*	*	*	*	*
4BB/	.	.	.	.	.	.	.	.	.	.	.
*xywh-#684:1305,1313,4221,936	*	*	*	*	*	*	*	*	*	*	*
2C/	.	.	.	.	.	1A	.	.	2c/	.	.
*	*	*	*Xlig	*	*	*	*	*	*	*	*
*	*	*	*lig	*	*	*	*	*	*	*	*
1BB	-ni-	.	1D	-ni-	.	.	.	.	1d	.	.
.	.	.	.	.	.	2G/	-ni-	.	.	.	.
=32-	=32-	=32-	=32-	=32-	=32-	=32-	=32-	=32-	=32-	=32-	=32-
2AA/	-trix	.	1E	.	.	1A	-trix	.	2c/	.	.
*	*Xij	*	*	*	*	*	*	*	*	*	*
2C/	in-	ſe-	.	.	.	.	.	.	2e\	in-	.
*	*	*	*Xlig	*	*	*	*	*	*	*	*
2AA/	-ter-	.	1E	-trix	-tem	2r	.	.	2c/	-ter-	Se-
*	*	*	*	*	*	*custos:A	*	*	*	*	*
2.C/	-ce-	-nem	.	.	.	2c\	in-	ſe-	2.e\	-ce-	-nem
=33-	=33-	=33-	=33-	=33-	=33-	=33-	=33-	=33-	=33-	=33-	=33-
*	*	*	*custos:F	*	*	*	*	*	*	*	*
*	*	*	*	*	*	*xywh-#322:1440,2822,4136,1028	*	*	*	*	*
!	!	!	!	!	!	!LO:LB:g=original	!	!	!	!	!
.	.	.	1E	in-	ſe-	2A/	-ter-	-nem	.	.	.
4BB/	.	.	.	.	.	.	.	.	4d\	.	.
4AA/	.	.	.	.	.	2.c\	-ce-	.	4c/	.	.
4GG/	.	.	.	.	.	.	.	.	4B/	.	re-
*	*	*	*clefC4	*	*	*	*	*	*	*	*
*	*	*	*lig	*	*	*	*	*	*	*	*
*	*	*	*xywh-#502:1336,2857,3165,847	*	*	*	*	*	*	*	*
!	!	!	!LO:LB:g=original	!	!	!	!	!	!	!	!
1FF	.	re-	1F	-ter-	-nem	.	.	.	4A/	.	.
.	.	.	.	.	.	4B\	.	re-	4G/	.	.
.	.	.	.	.	.	2A/	.	-ge-	1c\	.	-ge-
=34-	=34-	=34-	=34-	=34-	=34-	=34-	=34-	=34-	=34-	=34-	=34-
1GG	.	-ge-	1D	.	.	1G	.	-bat	.	.	.
.	.	.	.	.	.	.	.	.	2B/	.	.
*	*	*	*Xlig	*	*	*	*	*	*	*	*
1AA	-de,	-bat	1C	.	.	1E	-de	.	2c/	-de	-bat
*	*	*	*	*	*	*	*	*	*	*ij	*ij
.	.	.	.	.	.	.	.	.	2e\	in-	se-
=35-	=35-	=35-	=35-	=35-	=35-	=35-	=35-	=35-	=35-	=35-	=35-
*	*	*ij	*lig	*	*	*	*	*	*	*	*
*	*	*	*	*	*	*	*	*	*custos:f	*	*
2r	.	.	1D	-ce-	.	2A/	in-	.	2d\	-ter-	-nem
*	*	*	*	*	*	*	*	*	*xywh-#136:1509,2836,4130,828	*	*
!	!	!	!	!	!	!	!	!	!LO:LB:g=original	!	!
2A\	in-	re-	.	.	.	2F/	-ter-	.	2.f\	-ce-	re-
2F\	-ter-	.	1F	.	.	2.A/	-ce-	.	.	.	.
.	.	.	.	.	.	.	.	.	4e\	.	.
2.A\	-ce-	-ge-	.	.	.	.	.	.	2c/	.	.
.	.	.	.	.	.	4G/	.	.	.	.	.
*	*	*	*Xlig	*	*	*	*	*	*	*	*
=36-	=36-	=36-	=36-	=36-	=36-	=36-	=36-	=36-	=36-	=36-	=36-
*	*	*	*lig	*	*	*	*	*	*	*	*
.	.	.	1D	.	re-	4F/	.	.	2d\	.	.
4G\	.	.	.	.	.	4E/	.	.	.	.	.
4F\	.	.	.	.	.	2D/	.	.	2.f\	.	-ge-
4E\	.	.	.	.	.	.	.	.	.	.	.
4D/	.	.	1F	.	.	0A	.	.	.	.	.
4C/	.	.	.	.	.	.	.	.	4e\	.	.
*custos:AA	*	*	*	*	*	*	*	*	*	*	*
1.D\	.	.	.	.	.	.	.	.	4d\	.	.
.	.	.	.	.	.	.	.	.	4c/	.	.
*	*	*	*Xlig	*	*	*	*	*	*	*	*
=37-	=37-	=37-	=37-	=37-	=37-	=37-	=37-	=37-	=37-	=37-	=37-
*	*	*	*lig	*	*	*	*	*	*	*	*
.	.	.	1F	-de	-ge-	.	.	.	1d	.	.
*xywh-#684:1300,2105,4119,845	*	*	*	*	*	*	*	*	*	*	*
!LO:LB:g=original	!	!	!	!	!	!	!	!	!	!	!
1AA	-de	-bat	1E	.	.	2.A/	-de;	re-	2c/	-de	-bat
*	*	*Xij	*	*	*	*	*	*	*	*Xij	*Xij
.	.	.	.	.	.	.	.	.	2e\	pro	.
.	.	.	.	.	.	4B\	.	-ge-	.	.	.
*	*	*	*Xlig	*	*	*	*	*	*	*	*
=38-	=38-	=38-	=38-	=38-	=38-	=38-	=38-	=38-	=38-	=38-	=38-
*	*	*	*lig	*	*	*	*	*	*	*	*
2r	.	.	1C	pro	.	1c	.	-bat	1e	no-	.
2E\	pro	ſe-	.	.	.	.	.	.	.	.	.
1F	.	-ne(m)	1D	.	.	2r	.	.	2d\	.	.
.	.	.	.	.	.	2A/	pro	pu-	1f\	.	.
*	*	*	*Xlig	*	*	*	*	*	*	*	*
=39-	=39-	=39-	=39-	=39-	=39-	=39-	=39-	=39-	=39-	=39-	=39-
*	*	*	*lig	*	*	*	*	*	*	*	*
2D/	no-	.	1D	no-	.	1.A	no-	-er	.	.	.
1F	.	re-	.	.	.	.	.	.	4e\	.	.
.	.	.	.	.	.	.	.	.	4d\	.	.
.	.	.	1F	.	.	.	.	.	2c/	.	.
*	*	*	*	*	*	*custos:G	*	*	*	*	*
4E\	.	.	.	.	.	2F/	.	au-	2d\	.	.
4D/	.	.	.	.	.	.	.	.	.	.	.
*	*	*	*Xlig	*	*	*	*	*	*	*	*
=40-	=40-	=40-	=40-	=40-	=40-	=40-	=40-	=40-	=40-	=40-	=40-
*	*	*	*lig	*	*	*	*	*	*	*	*
*	*	*	*	*	*	*xywh-#322:5936,643,4178,965	*	*	*	*	*
!	!	!	!	!	!	!LO:LB:g=original	!	!	!	!	!
2C/	.	.	1E	.	.	2G/	.	.	2e\	.	.
*	*	*	*	*	*	*	*	*	*custos:d	*	*
2AA/	.	.	.	.	.	2A/	.	.	2c/	.	.
*	*	*	*	*	*	*	*	*	*xywh-#136:6119,659,3006,822	*	*
!	!	!	!	!	!	!	!	!	!LO:LB:g=original	!	!
0BB-X	.	-ge-	1D	.	.	1.F	.	.	2d/	.	.
.	.	.	.	.	.	.	.	.	1f\	.	.
*	*	*	*Xlig	*	*	*	*	*	*	*	*
=41-	=41-	=41-	=41-	=41-	=41-	=41-	=41-	=41-	=41-	=41-	=41-
*	*	*	*lig	*	*	*	*	*	*	*	*
.	.	.	1D	-bis,	-bat.	.	.	.	.	.	.
.	.	.	.	.	.	2G/	.	-tem	4e\	.	.
.	.	.	.	.	.	.	.	.	4d\	.	.
*	*	*	*custos:C	*	*	*	*	*	*	*	*
!	!	!	!LO:N:vis=00	!	!	!	!	!	!	!	!
1AA	-bis,	-bat	[y0.E;>/l	.	.	2A/	-bis;	.	2.c/	.	.
.	.	.	.	.	.	2A/	pro	.	.	.	.
.	.	.	.	.	.	.	.	.	4d/	.	.
*	*	*	*Xlig	*	*	*	*	*	*	*	*
=42-	=42-	=42-	=42-	=42-	=42-	=42-	=42-	=42-	=42-	=42-	=42-
2r	.	.	.	.	.	2.c\	no-	ſe-	1e	-bis	.
*	*	*ij	*	*	*	*	*	*	*	*	*
2AA/	pro	ſe-	.	.	.	.	.	.	.	.	.
.	.	.	.	.	.	4B/	.	-nem	.	.	.
*	*	*	*	*	*	*	*	*	*	*ij	*
2.C/	no-	-ne(m)	.	.	.	2A/	.	re-	2A/	pro	.
.	.	.	.	.	.	2G/	.	-ge-	1c\	no-	.
4BBny/	.	re-	.	.	.	.	.	.	.	.	.
=43-	=43-	=43-	=43-	=43-	=43-	=43-	=43-	=43-	=43-	=43-	=43-
2AA/	.	-ge-	00E]yy	.	.	2A/	.	-bat.	.	.	.
2GG/	.	.	.	.	.	2B/	.	.	2B/	.	.
1AA	.	.	.	.	.	1c	.	.	1A	.	.
=44-	=44-	=44-	=44-	=44-	=44-	=44-	=44-	=44-	=44-	=44-	=44-
*	*	*	*	*	*	*custos:G	*	*	*	*	*
!	!	!	!	!	!	!	!	!	!LO:TX:t=P:problem=# below	!	!
0EE;/l	-bis,	-bat	.	.	.	0B;<l	-bis,	.	0G#X;l	-bis	.
*	*	*Xij	*	*	*	*	*	*	*	*Xij	*
==	==	==	==	==	==	==	==	==	==	==	==
*-	*-	*-	*-	*-	*-	*-	*-	*-	*-	*-	*-
!!!system-decoration: [(s1,s2,s3,s4)]
!!!RDF**kern: > = above
!!!RDF**kern: < = below
!!!RDF**kern: l = terminal long
!!!ENC: Mateusz Solarz
!!!END: 2022-03-04
!!!ENC: Krzysztof Stępień
!!!END: 2022-03-12
!!!YEC: Copyright 2022 Narodowy Instytut Fryderyka Chopina (https://polishscores.org)
!!!YEM: Licence CC BY 4.0 (https://creativecommons.org/licenses/by/4.0)
!!!IIIF: https://repozytorium.nifc.pl/islandora/object/pl-kk%3A1/datastream/IIIF/view
!!!ENC-iiif: Elżbieta Cabała
!!!END-iiif: 2022-09-04
